images/zerostate.svg

<svg width="200" height="200" viewBox="0 0 200 200" fill="none" xmlns="http://www.w3.org/2000/svg">
<path d="M144.81 167.85L123.17 175.47L123.1 175.31L120.73 168.39C121.4 168.18 128.14 165.99 128.16 165.78V165.7H128.44C129.75 165.36 135.85 166.07 140.1 165.13C142.16 164.69 144.4 165.16 144.81 167.85Z" fill="white"/>
<path d="M77.42 177.43V177.66L65.32 177.42L55.55 172.69L58.7701 166.26L65.67 169.08C69.42 170.97 69.55 173.5 71.43 173.44C74.62 173.31 77.18 175.71 77.42 177.43Z" fill="white"/>
<path d="M59.11 99L58.55 99.14C52.83 82.21 59.86 61.14 78.1 53.05L86.2 51.65C86.1742 51.1682 86.3082 50.6913 86.5813 50.2935C86.8543 49.8957 87.2511 49.5992 87.71 49.45C87.8141 49.4161 87.9213 49.3927 88.03 49.38C91.278 48.9835 94.5621 48.9835 97.81 49.38C97.9757 49.4096 98.137 49.46 98.29 49.53C99.1 50.01 99.29 50.75 99.61 51.53C99.61 51.53 107.07 51.01 109.14 53.32C112.86 57.45 116.98 63.78 117.28 63.69C117.58 63.6 117.79 55.05 117.68 46.19V46.01C118.059 45.9471 118.434 45.8568 118.8 45.74C119.795 45.6858 120.766 45.4198 121.65 44.96V44.9L122.36 45.22L122.71 45.39V45.47C123.34 50.69 125.64 71.78 122.03 75.6C120.49 77.23 106.41 67.2 106.41 67.2C106.41 67.2 111.96 101.3 112.21 105.12H110.47L72.95 105.38C73.02 98.12 76.54 74.68 78.05 64.82C78.05 64.82 61.83 74.22 64.85 97.19C64.9 97.62 60.66 98.67 59.11 99Z" fill="white"/>
<path d="M102.44 34.06C102.55 34.2126 102.597 34.4018 102.571 34.5881C102.545 34.7744 102.448 34.9435 102.3 35.06C102.145 35.1602 101.958 35.1983 101.777 35.1665C101.595 35.1347 101.433 35.0355 101.321 34.8886C101.21 34.7418 101.158 34.5583 101.176 34.3749C101.195 34.1916 101.282 34.0219 101.42 33.9C101.497 33.8435 101.585 33.8028 101.678 33.7803C101.772 33.7578 101.868 33.7538 101.963 33.7687C102.058 33.7836 102.149 33.8169 102.23 33.8669C102.312 33.9169 102.383 33.9825 102.44 34.06Z" fill="white"/>
<path d="M95.9199 33.55C95.9806 33.643 96.0021 33.7561 95.9796 33.8648C95.9571 33.9735 95.8925 34.0688 95.8 34.13C95.7063 34.1882 95.5939 34.2082 95.486 34.1858C95.3781 34.1635 95.2828 34.1006 95.22 34.01C95.1904 33.9634 95.1703 33.9115 95.1608 33.8571C95.1513 33.8027 95.1526 33.747 95.1647 33.6931C95.1768 33.6392 95.1994 33.5883 95.2311 33.5431C95.2629 33.498 95.3033 33.4596 95.35 33.43C95.3952 33.4002 95.4459 33.3797 95.4991 33.3696C95.5523 33.3595 95.607 33.3601 95.66 33.3712C95.713 33.3824 95.7632 33.4039 95.8079 33.4346C95.8525 33.4653 95.8906 33.5045 95.9199 33.55Z" fill="white"/>
<path d="M123.81 177.29L145.55 169.75L144.93 167.95L123.19 175.49L123.81 177.29Z" stroke="white" stroke-width="0.86" stroke-linecap="round" stroke-linejoin="round"/>
<path d="M95.4199 124.32C95.4703 124.37 95.5171 124.423 95.5599 124.48C96.8899 126.15 106.77 139.36 107.09 140.04C109.42 145.04 119.78 166.42 120.68 168.41C121.35 168.2 128.09 166.01 128.11 165.8V165.72C128.23 163.33 125.11 146.03 122.11 129.72C121.93 128.72 115.39 114.72 110.37 105.21" stroke="white" stroke-width="0.86" stroke-miterlimit="10" stroke-linecap="round"/>
<path d="M128.45 165.71C129.76 165.37 135.86 166.08 140.11 165.14C142.11 164.69 144.4 165.14 144.81 167.85L123.17 175.47" stroke="white" stroke-width="0.86" stroke-linecap="round" stroke-linejoin="round"/>
<path d="M120.66 168.17L120.73 168.39L123.1 175.31" stroke="white" stroke-width="0.86" stroke-miterlimit="10"/>
<path d="M66.1599 169.27C67.7899 168.19 83.0199 151.71 89.4299 143.06C91.6299 140.06 93.6599 132.32 95.5599 124.48C96.6999 119.78 97.7999 115.05 98.8599 111.33" stroke="white" stroke-width="0.86" stroke-miterlimit="10" stroke-linecap="round"/>
<path d="M74.2301 105.89C74.2301 108.73 74.2301 111.89 74.2301 115C74.1001 123.2 73.6301 131.46 72.1001 134.63C68.1001 142.91 58.8601 166.18 58.8601 166.18" stroke="white" stroke-width="0.86" stroke-miterlimit="10" stroke-linecap="round"/>
<path d="M81.56 109.46C80.5 113.13 77.56 114.78 74.19 115C72.6981 115.089 71.2017 114.934 69.76 114.54" stroke="white" stroke-width="0.86" stroke-miterlimit="10" stroke-linecap="round"/>
<path d="M55.54 172.69L54.45 174.72L64.8499 179.53L77.41 179.56L77.43 177.66H77.4199L65.3099 177.42L55.54 172.69Z" stroke="white" stroke-width="0.86" stroke-linecap="round" stroke-linejoin="round"/>
<path d="M77.42 177.43C77.18 175.71 74.62 173.31 71.42 173.43C69.54 173.49 69.42 170.96 65.66 169.07L58.76 166.25L55.54 172.68" stroke="white" stroke-width="0.86" stroke-linecap="round" stroke-linejoin="round"/>
<path d="M98.8301 35.9301C98.8301 36.8001 98.7001 38.4801 97.3401 37.6801" stroke="white" stroke-width="0.86" stroke-miterlimit="10" stroke-linecap="round"/>
<path d="M101.5 39.88C100.09 41.88 98.58 43.47 97.93 43.66C97.7573 43.7102 97.5795 43.7404 97.4 43.75C95.31 43.92 92.89 41.84 92.2 39.94" stroke="white" stroke-width="0.86" stroke-miterlimit="10" stroke-linecap="round"/>
<path d="M105.51 29.1C105.932 30.2284 106.25 31.3933 106.46 32.58C106.77 34.58 105.17 37.74 103.39 40.3" stroke="white" stroke-width="0.86" stroke-miterlimit="10" stroke-linecap="round"/>
<path d="M90.6001 28.83C90.6501 28.64 90.7801 27.97 91.0401 27.08C91.1501 26.7 91.2801 26.29 91.4501 25.85C91.6201 25.41 91.7601 25.04 91.9501 24.62C92.8501 22.71 94.2701 20.8 96.4601 20.47C97.9501 20.24 99.3301 21.34 100.52 22.95C101.018 23.6436 101.466 24.3722 101.86 25.13C102.492 26.3411 103.04 27.594 103.5 28.88" stroke="white" stroke-width="0.86" stroke-miterlimit="10" stroke-linecap="round"/>
<path d="M87.71 49.49C88.3 43.74 88.55 38.83 89.63 33.14" stroke="white" stroke-width="0.86" stroke-miterlimit="10"/>
<path d="M97.4 43.75C97.31 45.99 97.03 47.47 97.82 49.34" stroke="white" stroke-width="0.86" stroke-miterlimit="10"/>
<path d="M91.31 30C91.1055 29.608 90.85 29.2449 90.55 28.92C88.43 26.67 86.44 30.92 87.27 32.32C87.5401 32.6629 87.9046 32.9194 88.3185 33.058C88.7325 33.1966 89.1779 33.2112 89.6 33.1C89.7924 33.0643 89.9802 33.0073 90.16 32.93" stroke="white" stroke-width="0.86" stroke-miterlimit="10" stroke-linecap="round"/>
<path d="M91.1299 27.06H91.0599C90.0599 27.27 82.7699 28.41 83.0599 26.06C83.1899 24.88 87.3099 24.57 91.8399 24.6H91.9999C95.4499 24.6 99.6299 24.95 101.92 25.13" stroke="white" stroke-width="0.86" stroke-miterlimit="10"/>
<path d="M103.31 32.21C102.955 31.9734 102.549 31.8231 102.126 31.771C101.702 31.7189 101.272 31.7665 100.87 31.91" stroke="white" stroke-width="1.23" stroke-miterlimit="10" stroke-linecap="round"/>
<path d="M89.9301 30.63C89.4631 30.9743 88.8888 31.1409 88.3101 31.1" stroke="white" stroke-width="0.86" stroke-miterlimit="10" stroke-linecap="round"/>
<path d="M105.52 29H105.58C106.332 29.1464 107.047 29.4395 107.686 29.8625C108.324 30.2855 108.873 30.8301 109.302 31.4653C109.73 32.1004 110.028 32.8137 110.181 33.5643C110.333 34.3149 110.336 35.0882 110.19 35.84C110.044 36.5918 109.75 37.3075 109.327 37.946C108.904 38.5846 108.36 39.1336 107.725 39.5616C107.09 39.9897 106.376 40.2885 105.626 40.4409C104.875 40.5934 104.102 40.5964 103.35 40.45C102.489 40.2659 101.682 39.8884 100.989 39.3462C100.296 38.8039 99.7355 38.111 99.3499 37.32C98.6732 35.9299 98.5753 34.3282 99.0777 32.8661C99.58 31.4039 100.642 30.2006 102.03 29.52C102.443 29.3152 102.88 29.1607 103.33 29.06L103.57 29.01C104.215 28.8953 104.874 28.8919 105.52 29Z" stroke="white" stroke-width="0.86" stroke-linecap="round" stroke-linejoin="round"/>
<path d="M96.45 31.05C96.0733 30.8528 95.656 30.7457 95.2309 30.737C94.8058 30.7283 94.3844 30.8184 94 31" stroke="white" stroke-width="0.86" stroke-miterlimit="10" stroke-linecap="round"/>
<path d="M95.1699 40.23C95.3113 40.449 95.4993 40.6342 95.7205 40.7721C95.9417 40.9101 96.1907 40.9975 96.4496 41.028C96.7085 41.0586 96.971 41.0316 97.2182 40.949C97.4655 40.8663 97.6914 40.7301 97.8799 40.55" stroke="white" stroke-width="0.86" stroke-miterlimit="10" stroke-linecap="round"/>
<path d="M113.76 43.06C112.94 42.35 113.85 40.31 114.65 39.18C114.784 38.9814 114.938 38.797 115.11 38.63C115.278 38.4577 115.482 38.3234 115.706 38.236C115.931 38.1487 116.171 38.1104 116.412 38.1237C116.652 38.1369 116.887 38.2014 117.101 38.3129C117.314 38.4244 117.502 38.5802 117.65 38.77" stroke="white" stroke-width="0.86" stroke-linecap="round" stroke-linejoin="round"/>
<path d="M117.19 43.7C117.185 43.7398 117.185 43.7801 117.19 43.82C117.12 44.4 115.69 44.12 115.88 42.97" stroke="white" stroke-width="0.86" stroke-linecap="round" stroke-linejoin="round"/>
<path d="M118.75 40.48C118.029 41.4435 117.499 42.5367 117.19 43.7" stroke="white" stroke-width="0.86" stroke-linecap="round" stroke-linejoin="round"/>
<path d="M116.17 40.5001C116.406 39.8554 116.873 39.3211 117.48 39.0001C117.536 38.9652 117.597 38.9382 117.66 38.9201C118.66 38.5601 119.66 39.2201 119 40.1701L118.75 40.5101" stroke="white" stroke-width="0.86" stroke-linecap="round" stroke-linejoin="round"/>
<path d="M120.5 42.12C119.36 41.69 119.15 43.01 118.97 43.85C118.966 43.9233 118.966 43.9967 118.97 44.07C118.901 44.2778 118.758 44.4528 118.567 44.5615C118.377 44.6702 118.154 44.705 117.939 44.6592C117.725 44.6134 117.535 44.4902 117.406 44.3132C117.277 44.1363 117.218 43.9179 117.24 43.7" stroke="white" stroke-width="0.86" stroke-linecap="round" stroke-linejoin="round"/>
<path d="M118.75 40.48C119.33 39.75 119.89 39.53 120.64 39.88C121.156 40.1643 121.581 40.588 121.868 41.1025C122.154 41.6171 122.29 42.2018 122.26 42.79" stroke="white" stroke-width="0.86" stroke-linecap="round" stroke-linejoin="round"/>
<path d="M113.37 40.94L111.89 40.18C111.751 40.1092 111.645 39.9871 111.595 39.8397C111.545 39.6922 111.554 39.531 111.62 39.39V39.31L111.99 38.57C112.025 38.5 112.073 38.4376 112.133 38.3865C112.192 38.3354 112.261 38.2966 112.335 38.2724C112.41 38.2482 112.488 38.2391 112.566 38.2455C112.644 38.252 112.72 38.2739 112.79 38.31L114.44 39.13" stroke="white" stroke-width="0.86" stroke-linecap="round" stroke-linejoin="round"/>
<path d="M120.41 42.08H120.5L122.23 42.83L123.05 43.18L124.18 43.74C124.319 43.8108 124.425 43.9329 124.475 44.0803C124.525 44.2277 124.516 44.389 124.45 44.53V44.6L124.05 45.4C123.977 45.5394 123.853 45.6454 123.704 45.6957C123.555 45.746 123.392 45.7368 123.25 45.67L122.73 45.4L122.38 45.23L121.67 44.91L119.23 43.82" stroke="white" stroke-width="0.86" stroke-linecap="round" stroke-linejoin="round"/>
<path d="M112 38.57V38.66L111.7 39.25C111.703 39.2699 111.703 39.2901 111.7 39.31C111.644 39.3856 111.563 39.439 111.472 39.461C111.38 39.4829 111.284 39.472 111.2 39.43L109.66 38.65C109.568 38.5991 109.499 38.5146 109.467 38.414C109.435 38.3135 109.444 38.2046 109.49 38.11L109.78 37.53C109.803 37.4825 109.836 37.4401 109.876 37.4053C109.916 37.3705 109.962 37.3439 110.012 37.3272C110.063 37.3104 110.116 37.3038 110.169 37.3077C110.221 37.3117 110.273 37.326 110.32 37.35L111.86 38.13C111.927 38.1789 111.977 38.2479 112.002 38.327C112.027 38.4062 112.027 38.4913 112 38.57Z" stroke="white" stroke-width="0.86" stroke-linecap="round" stroke-linejoin="round"/>
<path d="M121.62 45C120.736 45.4598 119.765 45.7257 118.77 45.78C118.404 45.8968 118.029 45.987 117.65 46.05C116.15 46.31 113.65 46.26 113.81 43.14C113.815 43.1135 113.815 43.0864 113.81 43.06C113.862 42.6248 114 42.2044 114.217 41.8232C114.433 41.4421 114.723 41.1078 115.07 40.84C115.388 40.6116 115.769 40.4892 116.16 40.49H116.34C116.527 40.5195 116.697 40.6179 116.815 40.7659C116.934 40.9139 116.992 41.1009 116.98 41.29C116.98 41.72 116.19 42.11 115.8 42.91C115.638 43.2383 115.568 43.605 115.6 43.97" stroke="white" stroke-width="0.86" stroke-linecap="round" stroke-linejoin="round"/>
<path d="M117.68 46.24C117.79 55.1 117.46 63.69 117.28 63.74C117.1 63.79 112.86 57.5 109.14 53.37C107.07 51.06 99.61 51.58 99.61 51.58C99.28 50.75 99.1 50.01 98.29 49.58C98.137 49.51 97.9757 49.4596 97.81 49.43C94.5621 49.0335 91.278 49.0335 88.03 49.43C87.9213 49.4427 87.8141 49.4661 87.71 49.5C87.2511 49.6491 86.8543 49.9457 86.5813 50.3435C86.3082 50.7413 86.1742 51.2182 86.2 51.7L78.1 53.1C59.86 61.2 52.83 82.26 58.55 99.19L59.11 99.05C60.66 98.68 64.9 97.63 64.85 97.2C61.83 74.22 78 64.86 78 64.86C76.49 74.72 73 98.16 72.9 105.42L110.42 105.16H112.16C111.91 101.34 106.36 67.24 106.36 67.24C106.36 67.24 120.44 77.24 121.98 75.64C125.59 71.82 123.29 50.73 122.66 45.51" stroke="white" stroke-width="0.86" stroke-linecap="round" stroke-linejoin="round"/>
<path d="M65.06 102.36C66.57 106.79 64.38 110.87 62.26 109.54" stroke="white" stroke-width="0.86" stroke-linecap="round" stroke-linejoin="round"/>
<path d="M63.37 103.2C63.6941 104.23 63.7725 105.322 63.5988 106.389C63.4252 107.455 63.0043 108.466 62.37 109.34L62.23 109.54C61.87 110 61.23 110.73 60.58 110.28C60.3713 110.111 60.2295 109.873 60.18 109.61C60.1305 109.346 60.1766 109.073 60.31 108.84" stroke="white" stroke-width="0.86" stroke-linecap="round" stroke-linejoin="round"/>
<path d="M61.33 103.7C61.84 105.3 60.7 109.03 59.7 109.53C58.52 110.19 57.91 108.9 58.49 107.79C60.43 104.06 57.84 100.86 59.11 99.04" stroke="white" stroke-width="0.86" stroke-linecap="round" stroke-linejoin="round"/>
<path d="M65.6001 105.29C65.8143 105.307 66.0294 105.273 66.2286 105.193C66.4278 105.112 66.6056 104.987 66.748 104.826C66.8904 104.665 66.9937 104.473 67.0495 104.266C67.1054 104.058 67.1125 103.841 67.0701 103.63C66.7871 101.481 65.8275 99.4775 64.3301 97.91" stroke="white" stroke-width="0.86" stroke-linecap="round" stroke-linejoin="round"/>
</svg>

<svg id="Layer_1" data-name="Layer 1" xmlns="http://www.w3.org/2000/svg" viewBox="0 0 200 200"><defs><style>.cls-1,.cls-2,.cls-3,.cls-4{fill:none;stroke:#000;}.cls-1,.cls-2,.cls-4{stroke-linecap:round;}.cls-1{stroke-linejoin:round;}.cls-1,.cls-2,.cls-3{stroke-width:0.86px;}.cls-2,.cls-3,.cls-4{stroke-miterlimit:10;}.cls-4{stroke-width:1.23px;}</style></defs><path d="M144.81,167.85l-21.64,7.62-.07-.16-2.37-6.92c.67-.21,7.41-2.4,7.43-2.61v-.08h.28c1.31-.34,7.41.37,11.66-.57C142.16,164.69,144.4,165.16,144.81,167.85Z"/><path d="M77.42,177.43v.23l-12.1-.24-9.77-4.73h0l3.22-6.43,6.9,2.82c3.75,1.89,3.88,4.42,5.76,4.36C74.62,173.31,77.18,175.71,77.42,177.43Z"/><path d="M59.11,99l-.56.14c-5.72-16.93,1.31-38,19.55-46.09l8.1-1.4a2.19,2.19,0,0,1,1.51-2.2,1.65,1.65,0,0,1,.32-.07,40.35,40.35,0,0,1,9.78,0,2,2,0,0,1,.48.15c.81.48,1,1.22,1.32,2,0,0,7.46-.52,9.53,1.79,3.72,4.13,7.84,10.46,8.14,10.37s.51-8.64.4-17.5l0-.18a8,8,0,0,0,1.12-.27,7,7,0,0,0,2.85-.78l0-.06.71.32.35.17,0,.08c.63,5.22,2.93,26.31-.68,30.13-1.54,1.63-15.62-8.4-15.62-8.4s5.55,34.1,5.8,37.92h-1.74l-37.52.26c.07-7.26,3.59-30.7,5.1-40.56v0S61.83,74.22,64.85,97.19C64.9,97.62,60.66,98.67,59.11,99Z"/><path d="M102.44,34.06a.73.73,0,0,1-.14,1,.73.73,0,0,1-.88-1.16A.73.73,0,0,1,102.44,34.06Z"/><path d="M95.92,33.55a.42.42,0,0,1-.12.58.43.43,0,0,1-.58-.12.42.42,0,0,1,.13-.58A.41.41,0,0,1,95.92,33.55Z"/><polygon class="cls-1" points="123.81 177.29 145.55 169.75 144.93 167.95 123.19 175.49 123.81 177.29"/><path class="cls-2" d="M95.42,124.32a1.5,1.5,0,0,1,.14.16c1.33,1.67,11.21,14.88,11.53,15.56,2.33,5,12.69,26.38,13.59,28.37l0,0c.67-.21,7.41-2.4,7.43-2.61v-.08c.12-2.39-3-19.69-6-36-.18-1-6.72-15-11.74-24.51v0"/><path class="cls-1" d="M128.45,165.71c1.31-.34,7.41.37,11.66-.57,2-.45,4.29,0,4.7,2.71l-21.64,7.62"/><polyline class="cls-3" points="120.66 168.17 120.73 168.39 123.1 175.31"/><path class="cls-2" d="M66.16,169.27c1.63-1.08,16.86-17.56,23.27-26.21,2.2-3,4.23-10.74,6.13-18.58,1.14-4.7,2.24-9.43,3.3-13.15"/><path class="cls-2" d="M74.23,105.89c0,2.84,0,6,0,9.11-.13,8.2-.6,16.46-2.13,19.63-4,8.28-13.24,31.55-13.24,31.55"/><path class="cls-2" d="M81.56,109.46c-1.06,3.67-4,5.32-7.37,5.54a13.69,13.69,0,0,1-4.43-.46"/><polygon class="cls-1" points="55.54 172.69 55.54 172.69 54.45 174.72 64.85 179.53 77.41 179.56 77.43 177.66 77.42 177.66 65.31 177.42 55.54 172.69"/><path class="cls-1" d="M77.42,177.43c-.24-1.72-2.8-4.12-6-4-1.88.06-2-2.47-5.76-4.36l-6.9-2.82-3.22,6.43"/><path class="cls-2" d="M98.83,35.93c0,.87-.13,2.55-1.49,1.75"/><path class="cls-2" d="M101.5,39.88c-1.41,2-2.92,3.59-3.57,3.78a2.35,2.35,0,0,1-.53.09c-2.09.17-4.51-1.91-5.2-3.81"/><path class="cls-2" d="M105.51,29.1a19.68,19.68,0,0,1,.95,3.48c.31,2-1.29,5.16-3.07,7.72"/><path class="cls-2" d="M90.6,28.83c.05-.19.18-.86.44-1.75.11-.38.24-.79.41-1.23s.31-.81.5-1.23c.9-1.91,2.32-3.82,4.51-4.15,1.49-.23,2.87.87,4.06,2.48a17.84,17.84,0,0,1,1.34,2.18v0a29.92,29.92,0,0,1,1.64,3.75"/><path class="cls-3" d="M87.71,49.49h0c.59-5.75.84-10.66,1.92-16.35"/><path class="cls-3" d="M97.4,43.75c-.09,2.24-.37,3.72.42,5.59"/><path class="cls-2" d="M91.31,30a5,5,0,0,0-.76-1.08c-2.12-2.25-4.11,2-3.28,3.4a2.24,2.24,0,0,0,2.33.78h0a2.64,2.64,0,0,0,.56-.17"/><path class="cls-3" d="M91.13,27.06l-.07,0h0c-1,.21-8.29,1.35-8-1,.13-1.18,4.25-1.49,8.78-1.46H92c3.45,0,7.63.35,9.92.53h0"/><path class="cls-4" d="M103.31,32.21a2.74,2.74,0,0,0-2.44-.3"/><path class="cls-2" d="M89.93,30.63a2.44,2.44,0,0,1-1.62.47"/><path class="cls-1" d="M105.52,29h.06a5.83,5.83,0,1,1-2.23,11.45h0a5.8,5.8,0,0,1-4-3.13,5.84,5.84,0,0,1,2.68-7.8,5.76,5.76,0,0,1,1.3-.46l.24-.05A5.73,5.73,0,0,1,105.52,29Z"/><path class="cls-2" d="M96.45,31.05A2.75,2.75,0,0,0,94,31"/><path class="cls-2" d="M95.17,40.23a1.77,1.77,0,0,0,2.71.32"/><path class="cls-1" d="M113.76,43.06c-.82-.71.09-2.75.89-3.88a3.49,3.49,0,0,1,.46-.55,1.69,1.69,0,0,1,2.54.14"/><path class="cls-1" d="M117.19,43.7a.5.5,0,0,0,0,.12c-.07.58-1.5.3-1.31-.85"/><path class="cls-1" d="M118.75,40.48a9.4,9.4,0,0,0-1.56,3.22"/><path class="cls-1" d="M116.17,40.5A2.78,2.78,0,0,1,117.48,39a.71.71,0,0,1,.18-.08c1-.36,2,.3,1.34,1.25l-.25.34"/><path class="cls-1" d="M120.5,42.12c-1.14-.43-1.35.89-1.53,1.73a2.25,2.25,0,0,0,0,.22.89.89,0,0,1-1.73-.37h0"/><path class="cls-1" d="M118.75,40.48h0c.58-.73,1.14-.95,1.89-.6a3.14,3.14,0,0,1,1.62,2.91"/><path class="cls-1" d="M113.37,40.94l-1.48-.76a.6.6,0,0,1-.27-.79l0-.08.37-.74,0,0a.59.59,0,0,1,.8-.26l1.65.82"/><path class="cls-1" d="M120.41,42.08l.09,0,1.73.75.82.35,1.13.56a.6.6,0,0,1,.27.79l0,.07-.4.8a.61.61,0,0,1-.8.27l-.52-.27-.35-.17-.71-.32-2.44-1.09"/><path class="cls-1" d="M112,38.57l0,.09-.3.59a.21.21,0,0,1,0,.06.4.4,0,0,1-.5.12l-1.54-.78a.41.41,0,0,1-.17-.54l.29-.58a.4.4,0,0,1,.54-.18l1.54.78A.39.39,0,0,1,112,38.57Z"/><path class="cls-1" d="M121.62,45a7,7,0,0,1-2.85.78,8,8,0,0,1-1.12.27c-1.5.26-4,.21-3.84-2.91a.22.22,0,0,0,0-.08,3.3,3.3,0,0,1,1.26-2.22,1.86,1.86,0,0,1,1.09-.35l.18,0a.76.76,0,0,1,.64.8c0,.43-.79.82-1.18,1.62a2,2,0,0,0-.2,1.06"/><path class="cls-1" d="M117.68,46.24c.11,8.86-.22,17.45-.4,17.5s-4.42-6.24-8.14-10.37c-2.07-2.31-9.53-1.79-9.53-1.79-.33-.83-.51-1.57-1.32-2a2,2,0,0,0-.48-.15,40.35,40.35,0,0,0-9.78,0,1.65,1.65,0,0,0-.32.07,2.19,2.19,0,0,0-1.51,2.2l-8.1,1.4c-18.24,8.1-25.27,29.16-19.55,46.09l.56-.14c1.55-.37,5.79-1.42,5.74-1.85C61.83,74.22,78,64.86,78,64.86v0c-1.51,9.86-5,33.3-5.1,40.56l37.52-.26h1.74c-.25-3.82-5.8-37.92-5.8-37.92s14.08,10,15.62,8.4c3.61-3.82,1.31-24.91.68-30.13"/><path class="cls-1" d="M65.06,102.36c1.51,4.43-.68,8.51-2.8,7.18"/><path class="cls-1" d="M63.37,103.2a6.92,6.92,0,0,1-1,6.14l-.14.2c-.36.46-1,1.19-1.65.74a1.13,1.13,0,0,1-.27-1.44"/><path class="cls-1" d="M61.33,103.7c.51,1.6-.63,5.33-1.63,5.83-1.18.66-1.79-.63-1.21-1.74,1.94-3.73-.65-6.93.62-8.75l0,0"/><path class="cls-1" d="M65.6,105.29a1.39,1.39,0,0,0,1.47-1.66,10.21,10.21,0,0,0-2.74-5.72"/></svg>
